X:1
T:The British Light Infantry
M:6/8
L:1/8
K:G
 D| DB,D GAG| AGA B2 B| cdc| BcB| AGA B2 B/2c/2| dBc dBc| dBc d2B/2-c/2|\
 dBd dgd/2-c/2| BGB| d2B/2-c/2| dBG GAB| AFD A2 G/2A/2| BGA BGA| BGA B2 d/2c/2|\
 BcB| AGA| G3- G2||
